X:97
T: WEM WOELL WIR DIESEN REBNER BRINGEN
N: E1126
O: Europa, Mitteleuropa, Deutschland
R: Trink -, Zech - Lied
M: 3/4
L: 1/4
K: C
 | CCC | E2F | G2G | EE
A | G2G | EEA | G2G | EE
E | EEE | E2E | F2E | DD
D | C2A, | C2
E | EEE | E2E | F2E | DD
D | C2A, | C3

@@@ Tune index: 4781
